resources/icons/npmignore_dark.svg

<?xml version="1.0" encoding="UTF-8" standalone="no"?>
<svg
    xmlns:dc="http://purl.org/dc/elements/1.1/"
    xmlns:cc="http://creativecommons.org/ns#"
    xmlns:rdf="http://www.w3.org/1999/02/22-rdf-syntax-ns#"
    xmlns:svg="http://www.w3.org/2000/svg"
    xmlns="http://www.w3.org/2000/svg"
    xmlns:sodipodi="http://sodipodi.sourceforge.net/DTD/sodipodi-0.dtd"
    xmlns:inkscape="http://www.inkscape.org/namespaces/inkscape"
    version="1.1"
    x="0px"
    y="0px"
    width="16"
    height="16"
    viewBox="0 0 16 16"
    id="svg10"
    sodipodi:docname="npm_dark.svg"
    inkscape:version="0.92.4 (5da689c313, 2019-01-14)">
    <metadata
        id="metadata16">
        <rdf:RDF>
            <cc:Work
                rdf:about="">
                <dc:format>image/svg+xml</dc:format>
                <dc:type
                    rdf:resource="http://purl.org/dc/dcmitype/StillImage" />
            </cc:Work>
        </rdf:RDF>
    </metadata>
    <defs
        id="defs14" />
    <sodipodi:namedview
        pagecolor="#ffffff"
        bordercolor="#666666"
        borderopacity="1"
        objecttolerance="10"
        gridtolerance="10"
        guidetolerance="10"
        inkscape:pageopacity="0"
        inkscape:pageshadow="2"
        inkscape:window-width="1920"
        inkscape:window-height="1001"
        id="namedview12"
        showgrid="false"
        inkscape:zoom="14.75"
        inkscape:cx="-3.3220339"
        inkscape:cy="8"
        inkscape:window-x="-9"
        inkscape:window-y="-9"
        inkscape:window-maximized="1"
        inkscape:current-layer="svg10" />
    <path
        d="M 0.13559322,4.338983 H 15.966102 v 7.336562 H 8.0508474 v 1.22276 H 4.5329566 v -1.22276 H 0.13559322 Z M 1.0150659,10.452784 H 2.7740112 V 6.7845036 H 3.6534839 V 10.452784 H 4.5329566 V 5.5617434 H 1.0150659 Z M 5.4124294,5.5617434 V 11.675545 H 7.1713747 V 10.452784 H 8.9303203 V 5.5617434 Z M 7.1713747,6.7845036 H 8.0508474 V 9.2300242 H 7.1713747 Z M 9.809793,5.5617434 v 4.8910406 h 1.758945 V 6.7845036 h 0.879473 v 3.6682804 h 0.879472 V 6.7845036 h 0.879473 v 3.6682804 h 0.879473 V 5.5617434 Z"
        id="path2"
        inkscape:connector-curvature="0"
        style="fill:#aeb9c0;stroke-width:1.03700733" />
    <polygon
        points="5,5 5,1 1,1 1,5 3,5 3,2 4,2 4,5 "
        id="polygon4"
        transform="matrix(0.8794727,0,0,1.2227603,0.13559322,4.338983)"
        style="fill:#333" />
    <path
        d="M 5.4124294,5.5617434 V 11.675545 H 7.1713747 V 10.452784 H 8.9303203 V 5.5617434 Z m 2.638418,3.6682808 H 7.1713747 V 6.7845036 h 0.8794727 z"
        id="path6"
        inkscape:connector-curvature="0"
        style="fill:#333;stroke-width:1.03700733" />
    <polygon
        points="14,5 15,5 15,2 16,2 16,5 17,5 17,1 11,1 11,5 13,5 13,2 14,2 "
        id="polygon8"
        transform="matrix(0.8794727,0,0,1.2227603,0.13559322,4.338983)"
        style="fill:#333" />
</svg>

<svg xmlns="http://www.w3.org/2000/svg" width="16" height="16" viewBox="0 0 16 16"><path d="M.136 4.339h15.83v7.337H8.051v1.222H4.533v-1.222H.136zm.88 6.114h1.758V6.785h.88v3.668h.879V5.562H1.015zm4.396-4.891v6.114h1.76v-1.223H8.93V5.562zm1.76 1.223h.879V9.23h-.88zM9.81 5.562v4.89h1.759V6.786h.88v3.668h.879V6.785h.88v3.668h.879V5.562z" fill="#aeb9c0" stroke-width="1.037"/><path fill="#333" d="M4.533 10.453V5.562H1.015v4.89h1.759V6.786h.88v3.668z"/><path d="M5.412 5.562v6.114h1.76v-1.223H8.93V5.562zM8.051 9.23h-.88V6.785h.88z" fill="#333" stroke-width="1.037"/><path fill="#333" d="M12.448 10.453h.88V6.785h.88v3.668h.879V5.562H9.81v4.89h1.759V6.786h.88z"/></svg>
